icons/door-line.svg

<svg viewBox="0 0 24 24" fill="currentColor" xmlns="http://www.w3.org/2000/svg">
    <path d="M17.998 3C18.5503 3 18.998 3.44772 18.998 4V20C18.998 20.5523 18.5503 21 17.998 21H5.99805C5.44576 21 4.99805 20.5523 4.99805 20V4C4.99805 3.44772 5.44576 3 5.99805 3H17.998ZM16.998 5H6.99805V19H16.998V5ZM14.998 11V13H12.998V11H14.998Z"/>
</svg>

<svg xmlns="http://www.w3.org/2000/svg" viewBox="0 0 24 24">
    <g>
        <path fill="none" d="M0 0H24V24H0z"/>
        <path d="M18 3c.552 0 1 .448 1 1v16c0 .552-.448 1-1 1H6c-.552 0-1-.448-1-1V4c0-.552.448-1 1-1h12zm-1 2H7v14h10V5zm-2 6v2h-2v-2h2z"/>
    </g>
</svg>
